// Hydra Video Synthesis - Kaleidoscopic Patterns
// Copy and paste into https://hydra.ojack.xyz/

osc(30, 0.1)
  .color(1.5)
  .kaleid(4)
  .scale(0.8)
  .modulate(
    osc(20, 0.05)
      .rotate(0.5),
    0.4
  )
  .modulate(
    src(0).scale(0.5),
    a("<0.1 0.2>")
  )
  .out()
